public/stickers/friends.svg

<svg width="1461" height="164" viewBox="0 0 1461 164" fill="none" xmlns="http://www.w3.org/2000/svg">
<rect width="1461" height="164" rx="28" fill="black"/>
<path d="M627.12 34.7619C624.905 35.6427 623.134 40.7516 623.842 44.3631C624.285 46.5652 620.299 54.4928 614.542 62.9489C612.327 66.0318 603.381 89.3742 601.255 97.3018C599.218 104.877 597.978 111.924 597.269 120.38C596.738 125.577 596.915 126.546 598.509 128.131C602.938 132.535 607.456 128.836 607.81 120.38C608.164 112.54 610.733 102.587 613.656 98.0945C615.073 95.8924 616.225 93.6022 616.225 93.0737C616.225 90.1669 621.096 91.0478 639.343 97.566C660.779 105.229 680 105.494 680 98.0945C680 95.2758 676.457 94.0426 661.133 91.1359C652.984 89.6384 645.189 88.0529 643.949 87.5244C641.646 86.6436 641.646 86.6436 643.329 84.97C644.215 84.0891 650.238 80.5657 656.527 77.0424C662.905 73.6071 668.751 70.0837 669.725 69.1148C671.319 67.5293 671.319 67.5293 668.662 66.1199C662.107 62.7727 652.896 65.9437 644.481 74.3117C637.483 81.4466 625.968 85.7627 621.982 82.8559C620.211 81.5347 620.211 81.5347 622.159 75.9854C623.134 72.9024 624.285 69.1148 624.551 67.5293C624.817 66.0318 627.651 60.0421 630.84 54.3166C637.926 41.5444 638.546 39.2542 635.446 36.1713C633.054 33.793 630.574 33.4406 627.12 34.7619Z" fill="white"/>
<path d="M1015.68 36.1256C1014.33 37.5514 1013.43 41.7538 1013.95 44.5304C1014.4 47.0818 1013.43 49.8584 1011.03 52.3348C1009 54.4359 1007.73 56.6122 1003.53 64.6417C999.777 71.6957 998.652 75.0726 997.977 80.7758C997.677 83.4773 996.552 87.5296 995.503 89.7809C992.878 95.4841 991.078 102.763 991.003 108.391C990.928 116.271 992.278 116.946 1011.78 118.372C1028.13 119.573 1051.98 118.972 1054.52 117.246C1057 115.67 1057.75 112.819 1056.17 110.493C1054.37 107.716 1050.4 106.74 1043.8 107.416C1040.65 107.716 1036.75 107.941 1035.1 107.866C1033.45 107.791 1028.05 107.641 1023.1 107.566C1013.65 107.341 1006.38 106.59 1004.73 105.54C1003.9 105.014 1003.9 104.339 1004.58 102.013C1005.03 100.437 1005.78 95.9343 1006.23 92.0321C1007.13 84.6029 1009.15 78.5996 1013.5 70.4199C1014.85 67.7935 1015.98 64.8668 1015.98 63.9663C1015.98 63.0658 1018.15 57.8128 1020.85 52.2597C1023.55 46.7066 1025.73 41.4536 1025.73 40.5531C1025.73 39.6526 1025.05 38.0767 1024.15 36.9511C1022.95 35.4502 1021.98 35 1019.73 35C1018.15 35 1016.35 35.5253 1015.68 36.1256Z" fill="white"/>
<path d="M1240.25 37.3362C1238.34 39.246 1238.68 44.8628 1241.04 50.0303C1242.17 52.5017 1243.4 58.3433 1243.85 63.0614C1244.53 71.4867 1244.53 71.7114 1240.14 80.1367C1237.67 84.7425 1235.31 90.8087 1234.86 93.5048C1233.73 101.818 1232.27 104.289 1226.87 106.873C1221.02 109.681 1212.14 109.457 1208.65 106.311C1203.25 101.368 1200.55 95.8639 1198.98 85.8659C1196.84 73.0594 1196.84 64.7465 1198.98 57.7816C1201.34 50.0303 1201.23 42.3914 1198.64 40.1447C1196.05 37.7856 1191.78 37.6732 1188.52 40.0323C1185.59 42.0544 1185.37 47.3342 1187.06 68.0043C1187.73 74.7445 1188.52 84.4055 1188.86 89.3483C1190.32 107.996 1199.88 115.972 1222.71 117.657C1231.71 118.331 1231.71 118.331 1235.87 114.624C1241.49 109.681 1245.2 103.166 1246.78 94.9652C1247.45 91.258 1249.03 84.9672 1250.26 80.923C1252.63 72.4977 1254.2 63.6231 1255.21 51.9401L1256 43.8518L1251.73 39.92C1247.34 35.8758 1242.73 34.8648 1240.25 37.3362Z" fill="white"/>
<path d="M107.3 40.1C104.7 41.1 104.6 41.1 102 57.9L99.7 72.2L94.6 74.6C84.8 79.1 72.4 80.2 68.4 76.9C66.7 75.5 66.7 73.2 68.9 57C69.9 49.6 69.2 48 65 48C61.2 48 60.4 49.4 59.1 58C57.1 71.5 54 85.6 50 99.6C47.8 107.3 46 114.5 46 115.7C46 119 48.7 121 53.1 121C58 121 58.3 120.3 61.1 103.6C62.2 97 63.5 90.9 63.9 90.1C64.5 89 67.2 88.6 76.1 88.6C85.6 88.5 88.3 88.1 92.3 86.3C94.9 85.1 97 84.3 97 84.6C97 84.9 96.4 87.9 95.6 91.3C94.8 94.7 93.4 101.3 92.5 105.9C90.9 114 90.9 114.5 92.6 115.7C95 117.5 101.5 117.3 103.3 115.5C105.2 113.7 105.3 113.3 109.1 87C112.8 61.2 113.9 52.2 113.9 45.4C114 40.8 113.8 40.2 111.7 39.8C110.4 39.5 108.4 39.7 107.3 40.1Z" fill="white"/>
<path d="M1368.5 42.3144C1363.22 58.5336 1359.69 81.8751 1358.49 108.672L1358 119.32L1359.83 119.814C1360.89 120.026 1362.44 120.096 1363.36 119.814C1364.27 119.602 1369.63 118.897 1375.2 118.333C1386.4 117.064 1396.48 115.23 1403.46 113.044C1412.19 110.365 1416 103.877 1416 91.7477C1416 82.6508 1414.94 80.5353 1409.09 77.644C1404.72 75.458 1403.88 75.3169 1397.25 75.3169C1393.31 75.3169 1389.78 75.1054 1389.5 74.7528C1389.22 74.4707 1389.64 74.2591 1390.35 74.2591C1392.96 74.2591 1402.89 68.8292 1405.5 66.079C1411.63 59.3798 1413.04 56.2065 1413.32 48.7315C1413.46 44.9235 1413.18 43.7247 1412.12 42.5259C1408.6 38.5769 1404.37 38.1538 1393.59 40.4809C1385.91 42.1733 1378.37 42.0323 1375.69 40.1283C1374.84 39.4936 1373.08 39 1371.88 39C1369.77 39 1369.49 39.2821 1368.5 42.3144ZM1402.54 47.7443C1404.44 48.7315 1404.65 49.1546 1404.3 50.8471C1402.89 56.6296 1396.62 63.6109 1390.77 65.797C1387.11 67.2073 1381.96 67.6304 1378.79 66.7842C1374.98 65.7264 1376.75 58.322 1382.1 53.0331C1387.04 48.2379 1392.18 45.8403 1396.69 46.2634C1398.73 46.4749 1401.34 47.1801 1402.54 47.7443ZM1387.81 82.7919C1399.23 83.7086 1401.41 84.4138 1405.08 88.4333C1407.19 90.7604 1407.54 91.6772 1407.54 94.5684C1407.54 96.4019 1407.19 99.0111 1406.84 100.492C1406.2 102.749 1405.64 103.242 1401.69 104.794C1396.48 106.839 1395.21 107.191 1388.8 108.037C1380.62 109.236 1370.47 107.121 1368.78 103.877C1368.36 103.031 1368.43 99.6457 1369.13 94.1453C1370.61 82.0162 1371.18 80.9584 1375.13 81.5225C1376.46 81.7341 1382.17 82.2982 1387.81 82.7919Z" fill="white"/>
<path d="M449.3 46.4C435.7 50.9 423.8 66.2 421 83.2C419.6 91.1 420.2 100.2 422.3 105.3C426.4 114.9 452 119 471.2 113C476.5 111.4 478.6 110.1 481.6 106.7C488.3 99 489.5 92.7 484.5 91.4C480.5 90.4 478.1 91.9 475.6 96.9C474.2 99.5 472.1 102.1 470.7 102.7C469.3 103.3 462 104.2 454.4 104.5C438.4 105.4 434.5 104.4 431 98.8C427.1 92.7 430 78.2 437.3 67.3C439.6 63.9 442.1 61.7 446.3 59.6C451.5 56.9 453.1 56.6 465 56.2C476.3 55.8 478.2 55.5 479 53.9C480.7 50.9 479.1 49.3 472.9 47.6C464.6 45.2 454.4 44.7 449.3 46.4Z" fill="white"/>
<path d="M839.8 47.3C827.5 52.5 818.4 64.2 814.4 80C812.4 87.8 812.9 101 815.2 105.5C818.4 111.6 830.9 116 845.2 116C851.9 116 863.8 113.6 868.6 111.4C872.5 109.5 877.3 103.9 879.6 98.5C881 95.1 881 94.6 879.4 92.9C876.2 89.3 870.9 91 868.6 96.3C866.2 102 864 103.2 853.3 104.2C841.4 105.4 830.3 104.8 827.3 102.9C826.1 102.2 824.1 99.4 823 96.7L820.9 91.9L822.9 83.9C825 75.4 829.3 67 833.2 63.3C838.1 58.7 844.8 56.7 856.5 56.3C871.4 55.8 872.2 55.6 871.8 52.2C871.5 49.9 870.7 49.2 866.1 47.7C863.1 46.7 857.3 45.7 853.1 45.4C846.6 45 844.7 45.3 839.8 47.3Z" fill="white"/>
<path d="M267.139 48.5571C265.957 50.7367 247.713 102.207 244.757 111.596C242.308 119.476 242.392 122.745 245.179 123.584C249.656 125.009 250.585 123.5 255.23 107.405L258.271 96.7585L267.562 95.7525C272.714 95.2496 278.626 94.7466 280.737 94.7466C284.623 94.6628 284.623 94.6628 285.636 98.1836C289.352 110.674 290.366 113.524 291.717 114.865C293.744 116.877 296.109 116.877 297.967 115.033C299.657 113.357 299.319 108.83 296.616 98.8542L294.927 92.567L296.701 89.2139C298.643 85.4416 298.136 84.6033 293.66 83.8489C290.619 83.3459 290.535 83.2621 285.805 72.3644C276.768 51.8264 270.011 43.1921 267.139 48.5571ZM275.839 72.532C278.541 78.903 280.569 84.1004 280.484 84.1842C279.977 84.6872 261.227 85.8608 261.227 85.4416C261.227 84.3519 270.095 61.1314 270.518 61.1314C270.771 61.1314 273.22 66.2449 275.839 72.532Z" fill="white"/>
<circle cx="178" cy="79" r="15" fill="#E42D42"/>
<circle cx="356" cy="79" r="15" fill="#2D9EE4"/>
<circle cx="548" cy="79" r="15" fill="#E4732D"/>
<circle cx="936" cy="79" r="15" fill="#E42D42"/>
<circle cx="1114" cy="79" r="15" fill="#2D9EE4"/>
<circle cx="1306" cy="79" r="15" fill="#E4732D"/>
</svg>

<svg width="1461" height="164" fill="none" xmlns="http://www.w3.org/2000/svg"><rect width="1461" height="164" rx="28" fill="#000"/><path d="M627.12 34.762c-2.215.88-3.986 5.99-3.278 9.601.443 2.202-3.543 10.13-9.3 18.586-2.215 3.083-11.161 26.425-13.287 34.353-2.037 7.575-3.277 14.622-3.986 23.078-.531 5.197-.354 6.166 1.24 7.751 4.429 4.404 8.947.705 9.301-7.751.354-7.84 2.923-17.793 5.846-22.285 1.417-2.203 2.569-4.493 2.569-5.021 0-2.907 4.871-2.026 23.118 4.492 21.436 7.663 40.657 7.928 40.657.528 0-2.818-3.543-4.051-18.867-6.958-8.149-1.498-15.944-3.083-17.184-3.612-2.303-.88-2.303-.88-.62-2.554.886-.88 6.909-4.404 13.198-7.928 6.378-3.435 12.224-6.958 13.198-7.927 1.594-1.586 1.594-1.586-1.063-2.995-6.555-3.347-15.766-.176-24.181 8.192-6.998 7.135-18.513 11.45-22.499 8.544-1.771-1.321-1.771-1.321.177-6.87.975-3.084 2.126-6.871 2.392-8.457.266-1.497 3.1-7.487 6.289-13.212 7.086-12.773 7.706-15.063 4.606-18.146-2.392-2.378-4.872-2.73-8.326-1.41ZM1015.68 36.126c-1.35 1.425-2.25 5.628-1.73 8.404.45 2.552-.52 5.328-2.92 7.805-2.03 2.1-3.3 4.277-7.5 12.307-3.753 7.054-4.878 10.43-5.553 16.134-.3 2.701-1.425 6.754-2.474 9.005-2.625 5.703-4.425 12.982-4.5 18.61-.075 7.88 1.275 8.555 20.777 9.981 16.35 1.201 40.2.6 42.74-1.126 2.48-1.576 3.23-4.427 1.65-6.753-1.8-2.777-5.77-3.753-12.37-3.077-3.15.3-7.05.525-8.7.45-1.65-.075-7.05-.225-12-.3-9.45-.225-16.72-.976-18.37-2.026-.83-.526-.83-1.201-.15-3.527.45-1.576 1.2-6.079 1.65-9.98.9-7.43 2.92-13.433 7.27-21.613 1.35-2.627 2.48-5.553 2.48-6.454 0-.9 2.17-6.153 4.87-11.706s4.88-10.806 4.88-11.707c0-.9-.68-2.476-1.58-3.602-1.2-1.5-2.17-1.951-4.42-1.951-1.58 0-3.38.525-4.05 1.126ZM1240.25 37.336c-1.91 1.91-1.57 7.527.79 12.694 1.13 2.472 2.36 8.313 2.81 13.031.68 8.426.68 8.65-3.71 17.076-2.47 4.606-4.83 10.672-5.28 13.368-1.13 8.313-2.59 10.784-7.99 13.368-5.85 2.808-14.73 2.584-18.22-.562-5.4-4.943-8.1-10.447-9.67-20.445-2.14-12.807-2.14-21.12 0-28.084 2.36-7.752 2.25-15.39-.34-17.637-2.59-2.36-6.86-2.472-10.12-.113-2.93 2.022-3.15 7.302-1.46 27.972.67 6.74 1.46 16.401 1.8 21.344 1.46 18.648 11.02 26.624 33.85 28.309 9 .674 9 .674 13.16-3.033 5.62-4.943 9.33-11.458 10.91-19.659.67-3.707 2.25-9.998 3.48-14.042 2.37-8.425 3.94-17.3 4.95-28.983l.79-8.088-4.27-3.932c-4.39-4.044-9-5.055-11.48-2.584ZM107.3 40.1c-2.6 1-2.7 1-5.3 17.8l-2.3 14.3-5.1 2.4c-9.8 4.5-22.2 5.6-26.2 2.3-1.7-1.4-1.7-3.7.5-19.9 1-7.4.3-9-3.9-9-3.8 0-4.6 1.4-5.9 10-2 13.5-5.1 27.6-9.1 41.6-2.2 7.7-4 14.9-4 16.1 0 3.3 2.7 5.3 7.1 5.3 4.9 0 5.2-.7 8-17.4 1.1-6.6 2.4-12.7 2.8-13.5.6-1.1 3.3-1.5 12.2-1.5 9.5-.1 12.2-.5 16.2-2.3 2.6-1.2 4.7-2 4.7-1.7 0 .3-.6 3.3-1.4 6.7-.8 3.4-2.2 10-3.1 14.6-1.6 8.1-1.6 8.6.1 9.8 2.4 1.8 8.9 1.6 10.7-.2 1.9-1.8 2-2.2 5.8-28.5 3.7-25.8 4.8-34.8 4.8-41.6.1-4.6-.1-5.2-2.2-5.6-1.3-.3-3.3-.1-4.4.3ZM1368.5 42.314c-5.28 16.22-8.81 39.561-10.01 66.358l-.49 10.648 1.83.494c1.06.212 2.61.282 3.53 0 .91-.212 6.27-.917 11.84-1.481 11.2-1.269 21.28-3.103 28.26-5.289 8.73-2.679 12.54-9.167 12.54-21.296 0-9.097-1.06-11.213-6.91-14.104-4.37-2.186-5.21-2.327-11.84-2.327-3.94 0-7.47-.212-7.75-.564-.28-.282.14-.494.85-.494 2.61 0 12.54-5.43 15.15-8.18 6.13-6.7 7.54-9.872 7.82-17.347.14-3.809-.14-5.007-1.2-6.206-3.52-3.95-7.75-4.372-18.53-2.045-7.68 1.692-15.22 1.551-17.9-.353-.85-.634-2.61-1.128-3.81-1.128-2.11 0-2.39.282-3.38 3.314Zm34.04 5.43c1.9.987 2.11 1.41 1.76 3.103-1.41 5.783-7.68 12.764-13.53 14.95-3.66 1.41-8.81 1.833-11.98.987-3.81-1.058-2.04-8.462 3.31-13.75 4.94-4.796 10.08-7.194 14.59-6.77 2.04.21 4.65.916 5.85 1.48Zm-14.73 35.048c11.42.917 13.6 1.622 17.27 5.641 2.11 2.327 2.46 3.244 2.46 6.135 0 1.834-.35 4.443-.7 5.924-.64 2.257-1.2 2.75-5.15 4.302-5.21 2.045-6.48 2.397-12.89 3.243-8.18 1.199-18.33-.916-20.02-4.16-.42-.846-.35-4.231.35-9.732 1.48-12.129 2.05-13.187 6-12.623 1.33.212 7.04.776 12.68 1.27ZM449.3 46.4c-13.6 4.5-25.5 19.8-28.3 36.8-1.4 7.9-.8 17 1.3 22.1 4.1 9.6 29.7 13.7 48.9 7.7 5.3-1.6 7.4-2.9 10.4-6.3 6.7-7.7 7.9-14 2.9-15.3-4-1-6.4.5-8.9 5.5-1.4 2.6-3.5 5.2-4.9 5.8-1.4.6-8.7 1.5-16.3 1.8-16 .9-19.9-.1-23.4-5.7-3.9-6.1-1-20.6 6.3-31.5 2.3-3.4 4.8-5.6 9-7.7 5.2-2.7 6.8-3 18.7-3.4 11.3-.4 13.2-.7 14-2.3 1.7-3 .1-4.6-6.1-6.3-8.3-2.4-18.5-2.9-23.6-1.2ZM839.8 47.3c-12.3 5.2-21.4 16.9-25.4 32.7-2 7.8-1.5 21 .8 25.5 3.2 6.1 15.7 10.5 30 10.5 6.7 0 18.6-2.4 23.4-4.6 3.9-1.9 8.7-7.5 11-12.9 1.4-3.4 1.4-3.9-.2-5.6-3.2-3.6-8.5-1.9-10.8 3.4-2.4 5.7-4.6 6.9-15.3 7.9-11.9 1.2-23 .6-26-1.3-1.2-.7-3.2-3.5-4.3-6.2l-2.1-4.8 2-8c2.1-8.5 6.4-16.9 10.3-20.6 4.9-4.6 11.6-6.6 23.3-7 14.9-.5 15.7-.7 15.3-4.1-.3-2.3-1.1-3-5.7-4.5-3-1-8.8-2-13-2.3-6.5-.4-8.4-.1-13.3 1.9ZM267.139 48.557c-1.182 2.18-19.426 53.65-22.382 63.039-2.449 7.88-2.365 11.149.422 11.988 4.477 1.425 5.406-.084 10.051-16.179l3.041-10.647 9.291-1.005c5.152-.503 11.064-1.006 13.175-1.006 3.886-.084 3.886-.084 4.899 3.437 3.716 12.49 4.73 15.34 6.081 16.681 2.027 2.012 4.392 2.012 6.25.168 1.69-1.676 1.352-6.203-1.351-16.179l-1.689-6.287 1.774-3.353c1.942-3.772 1.435-4.61-3.041-5.365-3.041-.503-3.125-.587-7.855-11.485-9.037-20.538-15.794-29.172-18.666-23.807Zm8.7 23.975c2.702 6.371 4.73 11.568 4.645 11.652-.507.503-19.257 1.677-19.257 1.258 0-1.09 8.868-24.31 9.291-24.31.253 0 2.702 5.113 5.321 11.4Z" fill="#fff"/><circle cx="178" cy="79" r="15" fill="#E42D42"/><circle cx="356" cy="79" r="15" fill="#2D9EE4"/><circle cx="548" cy="79" r="15" fill="#E4732D"/><circle cx="936" cy="79" r="15" fill="#E42D42"/><circle cx="1114" cy="79" r="15" fill="#2D9EE4"/><circle cx="1306" cy="79" r="15" fill="#E4732D"/></svg>
